static/icons/instagram.svg

<svg xmlns="http://www.w3.org/2000/svg" xmlns:xlink="http://www.w3.org/1999/xlink" width="28" height="28" viewBox="0 0 28 28">
    <defs>
        <filter id="a" width="170%" height="170%" x="-35%" y="-25%" filterUnits="objectBoundingBox">
            <feOffset dy="2" in="SourceAlpha" result="shadowOffsetOuter1"/>
            <feGaussianBlur in="shadowOffsetOuter1" result="shadowBlurOuter1" stdDeviation="2"/>
            <feColorMatrix in="shadowBlurOuter1" result="shadowMatrixOuter1" values="0 0 0 0 0 0 0 0 0 0 0 0 0 0 0 0 0 0 0.5 0"/>
            <feMerge>
                <feMergeNode in="shadowMatrixOuter1"/>
                <feMergeNode in="SourceGraphic"/>
            </feMerge>
        </filter>
        <path id="b" d="M20 10v10H0V0h20z"/>
    </defs>
    <g fill="none" fill-rule="evenodd" filter="url(#a)" transform="translate(4 2)">
        <mask id="c" fill="#fff">
            <use xlink:href="#b"/>
        </mask>
        <path fill="#BDEBE5" d="M10 20c5.523 0 10-4.477 10-10S15.523 0 10 0 0 4.477 0 10s4.477 10 10 10" mask="url(#c)"/>
        <path fill="#231F20" d="M12.4 11.9c-.578.578-1.268.867-2.071.867-.803 0-1.49-.289-2.06-.867-.571-.578-.856-1.264-.856-2.06 0-.135.015-.323.045-.563H5.5v3.872c0 .421.146.781.439 1.081.292.3.649.45 1.069.45h6.664c.42 0 .777-.15 1.069-.45.293-.3.439-.66.439-1.081V9.277h-1.981c.045.18.068.368.068.563 0 .796-.289 1.482-.867 2.06zM7.008 5c-.42 0-.777.146-1.069.439A1.453 1.453 0 0 0 5.5 6.508v1.644h2.454c.555-.826 1.35-1.239 2.386-1.239 1.006 0 1.801.413 2.386 1.239h2.454V6.508c0-.42-.146-.777-.439-1.069A1.453 1.453 0 0 0 13.672 5H7.008zm7.114 2.139h-.81a.245.245 0 0 1-.192-.091.274.274 0 0 1-.078-.18v-.81c0-.18.09-.27.27-.27h.81c.18 0 .27.09.27.27v.81c0 .18-.09.271-.27.271zm-2.51 1.418a1.755 1.755 0 0 0-1.272-.518c-.495 0-.919.173-1.272.518a1.709 1.709 0 0 0-.529 1.272c0 .503.176.93.529 1.283.353.353.777.529 1.272.529s.919-.176 1.272-.529c.353-.353.529-.777.529-1.272 0-.51-.176-.938-.529-1.283z" mask="url(#c)"/>
    </g>
</svg>

<?xml version="1.0" encoding="UTF-8" standalone="no"?>
<svg width="20px" height="20px" viewBox="0 0 20 20" version="1.1" xmlns="http://www.w3.org/2000/svg" xmlns:xlink="http://www.w3.org/1999/xlink">
    <!-- Generator: sketchtool 40.3 (33839) - http://www.bohemiancoding.com/sketch -->
    <title>A78E1585-9E4C-4884-8DE4-B0647CD69244</title>
    <desc>Created with sketchtool.</desc>
    <defs>
        <polygon id="path-1" points="20 10.00005 20 20 0 20 0 10.00005 0 0.0001 20 0.0001"></polygon>
    </defs>
    <g id="Symbols" stroke="none" stroke-width="1" fill="none" fill-rule="evenodd">
        <g id="Header---Mini" transform="translate(-1770.000000, -5.000000)">
            <g id="Instagram" transform="translate(1770.000000, 5.000000)">
                <mask id="mask-2" fill="white">
                    <use xlink:href="#path-1"></use>
                </mask>
                <g id="Clip-2"></g>
                <path d="M10,20.0001 C15.523,20.0001 20,15.5231 20,10.0001 C20,4.4771 15.523,0.0001 10,0.0001 C4.477,0.0001 0,4.4771 0,10.0001 C0,15.5231 4.477,20.0001 10,20.0001" id="Fill-1" fill="#FFFF00" mask="url(#mask-2)"></path>
                <path d="M12.4,11.9 C11.822,12.478 11.132,12.767 10.329,12.767 C9.526,12.767 8.839,12.478 8.269,11.9 C7.698,11.322 7.413,10.636 7.413,9.84 C7.413,9.705 7.428,9.517 7.458,9.277 L5.5,9.277 L5.5,13.149 C5.5,13.57 5.646,13.93 5.939,14.23 C6.231,14.53 6.588,14.68 7.008,14.68 L13.672,14.68 C14.092,14.68 14.449,14.53 14.741,14.23 C15.034,13.93 15.18,13.57 15.18,13.149 L15.18,9.277 L13.199,9.277 C13.244,9.457 13.267,9.645 13.267,9.84 C13.267,10.636 12.978,11.322 12.4,11.9 L12.4,11.9 Z M7.008,5 C6.588,5 6.231,5.146 5.939,5.439 C5.646,5.731 5.5,6.088 5.5,6.508 L5.5,8.152 L7.954,8.152 C8.509,7.326 9.304,6.913 10.34,6.913 C11.346,6.913 12.141,7.326 12.726,8.152 L15.18,8.152 L15.18,6.508 C15.18,6.088 15.034,5.731 14.741,5.439 C14.449,5.146 14.092,5 13.672,5 L7.008,5 Z M14.122,7.139 L13.312,7.139 C13.237,7.139 13.173,7.109 13.12,7.048 C13.068,6.988 13.042,6.929 13.042,6.868 L13.042,6.058 C13.042,5.878 13.132,5.788 13.312,5.788 L14.122,5.788 C14.302,5.788 14.392,5.878 14.392,6.058 L14.392,6.868 C14.392,7.048 14.302,7.139 14.122,7.139 L14.122,7.139 Z M11.612,8.557 C11.259,8.212 10.835,8.039 10.34,8.039 C9.845,8.039 9.421,8.212 9.068,8.557 C8.715,8.902 8.539,9.326 8.539,9.829 C8.539,10.332 8.715,10.759 9.068,11.112 C9.421,11.465 9.845,11.641 10.34,11.641 C10.835,11.641 11.259,11.465 11.612,11.112 C11.965,10.759 12.141,10.335 12.141,9.84 C12.141,9.33 11.965,8.902 11.612,8.557 L11.612,8.557 Z" id="Fill-4" fill="#221F20" mask="url(#mask-2)"></path>
            </g>
        </g>
    </g>
</svg>
